X:1
T:Birmingham Boys
M:4/4
L:1/8
K:C
 z4 z2 G2| cc c2B-A G2| A2 G2 E2 GG| c2 cc BA G2| A6 AB| c2 c2B-A G2|\
 A2 G2 E2 G2| FF DD E2 C2| D2D-E F2 G2| AA AAG-F E2| D6 z2|
